X: 240
T:The Pleated Plaidie
% Nottingham Music Database
S:Dennis Salter, via Phil Rowe
M:6/8
K:A
e2d |"A"c2e "E7"B2e|"A"A2A GFE|"D"F2A d2f|"E7"eBc dcB|"A"c2e "E7"B2e|
"A"Ace a3|"B7"bfb agf|"E7"efe gfe|"A"c2e "E7"B2e|"A"A2A GFE|"D"F2A d2f|
"E7"g3 efg|"A"a2a "D"agf|"A"efe ece|"Bm"f2f "E7"gfg|"A"a3 "A7"ag=g||
"D"f2f def|"A"e2e c2c|"Bm"dcd "E7"fed|"A"c3 -c3|"Bm"Bcd "E7"fed|
"A"c2e A2c|"B7"B^da gBf|"E7"e3 e2=f|"D"f2f def|"A"e2e cde|
"Bm"d2c "B7"BcA|"E7"GA^A B2=c|"A"^c2e "E7"B2e|"A"Ace a2a|"B7"b2b "E7"gfe|\
"A"a3 ||


